X:223
T:Be Thou My Vision
%%stretchlast false
M:3/4
L:1/4
K:C clef=C1
"^I¹"[EGc] [EGc] "^V²"[DGBd]/ "^I¹"[EGc]/ | "^IV²"[CFA] "^V¹"[B,DG] [B,DG]/ "^IV²"[CFA]/ | "^I¹"[EGc] [EGc] "^V²"[DGBd] | "^I"[CGce]3 | "^V"[G,GBd] [G,GBd] [G,GBd] | [G,GBd] "^iii"[E,GBe] "^I"[CGeg] | "^IV"[FAca] "^V"[GBdg] "^vi"[Ace] | "^I¹"[EGcg] [Ecg] [Eceg] | "^IV¹"[Acfa] "^IV"[FAca]/ "^vii°¹"[DBfb]/ "^IV"[Fcac']/ "^V"[GBgb]/ | "^IV"[Fcfa] "^V"[GBdg] "^I¹"[EGce] | [EGcg] "^I"[CEGc] "^V"[G,DGB] | "^IV"[F,CFA]2 "^iii"[E,EG] | "^I²"[G,EGc] [G,Gce] "^iii"[EGeg] | "^IV"[FAfa]/ "^iii"[EGeg]/ "^I²"[Gce] "^I¹"[EGc]/ [EGce]/ | "^V²"[DGBd] "^i"[CGc] [G,Gc] | "^I¹"[EGc]3 |]
